X:0503
T:Orchall.
T:A Strathspey.
M:C|
L:1/8
Q:1/4=120
I: :: ::
Z:Jack Campin * www.campin.me.uk * 2009
K:G Dorian
f|c>FTc>A c>FA>f |c>FTc>A      B>(GG)>f|c>FTc>A f>ga>g|f>dTc>A {A}G2G::
c|f>ga>g  f>cTA>F|f/e/f/g/ a>c cdd>e   |f>ga>f  g>afc |d>fc>A  {A}G2G:|
<end>
<start>
